X: 428
T: Tralibane Bridge
N:"Moderate" "collected by F.O'Neill"
N:Irish title: droi.ciod trai.g-le-.bain
B:O'Neill's 428
Z:Transcribed by henrik.norbeck@mailbox.swipnet.se
M:6/8
L:1/8
K:Gm
G>AG (GAc) | (d2 =e f2) (e/f/) | d>cA A>G^F | (G2 F) D3 |
G>AG GAc | (d2 =e f2) (e/f/) | TdcA G2 G | G3- G2 ||
f | g>fd fga | b2 a g2 a | g>fd d>cA | (G2 F) (D2 f) |
gfd fga | b2 a g2 f | dgb a>g^f | g3- g2 f |
g>fd fga | b2 (a/b/) g2 a | g>fd dcA | (G2 F) (D2 ^F) |
G>AG GAc | (d2 =e f2) (e/f/) | TdcA G2 G | G3- G2 ||


